X:9421
T:Le Pont - bourree
C:Patrick Bouffard 
Z:abc transcription Simon Wascher
N:please mail errors to: simon.wascher@chello.at
M:2/4
L:1/8
K:Dm
A3/2B/2 AA|G/2A/2G/2F/2 E/2D/2E/2F/2|
A3/2B/2 AA|G/2F/2G/2A/2 B/2A/2B/2c/2|
A3/2B/2 AA|G/2A/2G/2F/2 E/2D/2E/2F/2|
A3/2B/2 AA|G/2A/2B/2c/2 A2:|
K:Ddorian
|:d/2c/2d/2e/2 c/2B/2c/2d/2|B/2A/2B/2c/2 A2|
G/2A/2G/2F/2 E/2D/2E/2F/2|G/2A/2G/2F/2 ED|
d/2c/2d/2e/2 c/2B/2c/2d/2|B/2A/2B/2c/2 AA/2c/2|
dd c/2e/2d/2c/2|d3/2c/2 d2:|
